packages/calcite-ui-icons/icons/editing-trim-to-length-16.svg

<?xml version="1.0" encoding="UTF-8"?><svg id="icons" xmlns="http://www.w3.org/2000/svg" viewBox="0 0 16 16"><defs><style>.cls-1{fill:none;}</style></defs><path d="M13.00098,0v3h2.99902V0h-2.99902ZM15,2h-1v-1h1v1ZM11,4h1v1h-1v-1ZM9,6h1v1h-1v-1ZM5,10.47021l-2.53027,2.52979H0v3h2.99902v-2.46869l2.5318-2.53131h2.4682v-3h-2.99902v2.47021ZM6,9h1v1h-1v-1ZM2,15h-1v-1h1v1Z"/><rect class="cls-1" width="16" height="16"/></svg>

<svg xmlns="http://www.w3.org/2000/svg" viewBox="0 0 16 16"><path d="M13.001 0v3H16V0h-2.999zM15 2h-1V1h1v1zm-4 2h1v1h-1V4zM9 6h1v1H9V6zm-4 4.47L2.47 13H0v3h2.999v-2.469L5.531 11h2.468V8H5v2.47zM6 9h1v1H6V9zm-4 6H1v-1h1v1z"/><path fill="none" d="M0 0h16v16H0z"/></svg>
